!!!OTL: Daqingshan wulala shantaoshan
!!!ARE: Asia, China,ˇHebei, Guyuan
!! IV, 68
!!!SCT: C1639
!!!YEM: Copyright 1995, estate of Helmut Schaffrath.
**kern
*ICvox
*Ivox
*M2/4
*k[]
*C:
{4dd
8ee
16dd
16cc
=1
8cc
16a
16g
8f
8d
=2
4dd
8ee
16dd
16cc
=3
2a}
=4
{4dd
8ee
16dd
16cc
=5
8cc
16a
16g
8f
8d
=6
4.cc
8a
=7
8dd
8g
8f
16d
16f
=8
2g}
==
!!!AGN: Shange, Pashan diao. NannÅ liqing
!!!AMT: simple duple
!!!AIN: vox
!!!EED: Helmut Schaffrath
!!!EEV: 1.0
*-
